X: 18189
T: Humours Of Giulia, The
R: reel
M: 4/4
K: Eminor
EGBc B3 A|AGBG AGFD|EGBc B3 e|dBGA F2 GF|
EGBc B2 BA|AGBc AGBd|c2 BA BEGB|1 FGFD EFGF:|2 FGFD EFGA||
Bdef g2 gf|eBGB cAFA|Bdef g2 fg|a3 g fadc|
B3a g2 fg|eBGA {B}AGBd|c2 BA BEGB|1 FGFD EFGA:|2 FGFD EFGF||

